!!!COM: Robert Franz
!!!CNT: Deutscher
!!!TXO: Deutsche 
!!!OTL: Mailied
!!!OPS: Op. 33
!!!ONM: No. 3
!!!ONB: Original key: A Major
!!!LYR: Goethe
!!!ENC: Brian Bice
!!!YOR: Vocal Album, G. Schirmer, Inc., 1907
!!!ODT: 1864/
!!NB: Vocal melody and text only encoded.
**kern	**silbe
*clefG2	*
*k[f#]	*
*M6/16	*
=0	=0
8.r	.
16r	.
{16b	{Zwi-
16b	-schen
=1	=1
16b	Wei-
16b	-zen
16b	und
16dd}	Korn,}
{16dd	{zwi-
16dd	-schen
=2	=2
16a	He-
16a	-cken
16a	und
16cc}	Dorn,}
{16cc	{zwi-
16cc	-schen
=3	=3
16g	Blu-
16g	-men
16g	und
[8.b	Gras,
=4	=4
16b]}	|}
16r	.
16r	.
{8a	{wo
16g	geht's
=5	=5
8.f#	Lieb-
8a	-chen
16r	.
=6	=6
8dd	Sag'
16a	mir
[8.a	das?
=7	=7
16a]}	|}
16r	.
16r	.
8.r	.
=9	=9
{8f#	{Fand
16g	mein
8a	Hold-
16g	-chen
=10	=10
8f#	nicht
16e	da-
8d}	-heim;}
16r	.
=11	=11
{8a	{muss
16b	das
8cc	Gold-
16b	-chen
=12	=12
8a	drau-
16g	-ssen
8f#}	sein.}
16r	.
=13	=13
{8dd	{Gru2nt
16g	und
8b	blu2-
16a	-het
=14	=14
8g	scho2n
(f#q	der
16e)	|
8d}	Mai}
16r	,
=15	=15
{8dd	{Lieb-
16g	-chen
8b	zie-
16a	-het
=16	=16
8g	froh
(f#q	und
16e)	|
8d}	frei.}
16r	.
=18	=18
8.r	.
16r	.
{16b	{An
16b	dem
=19	=19
16b	Fel-
16b	-sen
16b	beim
16dd}	Fluss,}
{16dd	{wo
16dd	sie
=20	=20
16a	reich-
16a	-te
16a	den
16cc}	Kuss,}
{16cc	{je-
16cc	-nen
=21	=21
16g	er-
16g	-sten
16g	im
[8.b	Gras,
=22	=22
16b]}	|}
16r	.
16r	.
8.r	.
=23	=23
8.r	.
{(16f#	{seh'
16e)	|
16d	ich
=24	=24
8a	et-
16g}	-was!}
8.r	.
=25	=25
8.r	.
{(16d	{Ist
f#q	|
16e)	|
16d	sie
=26	=26
8.b}	das?}
*-	*-
